X: 41581
T: Up Against The Buachaláns
R: reel
M: 4/4
K: Dmajor
D2 FA DAFA|dfed cABc|dBBA (3Bcd AF|GBAF GFEF|
D2 FA DAFA|dfed cABc|dBBA (3Bcd AF|1 GBAF GFEF:|2 GBAG FDD2||
a2 af defa|gfed cdef|a2 fa dafa|bgeg fddf|
a2 af defa|gfed cdef|a2fe dBBA|1 BdAG FDD2:|2 BdAF GFEF||

